X:1
T:God Is Keeping His Soldiers Fighting
T:God Is Keeping His Soldiers Fighting
T:Herbert Howard Booth, 1886
T:William James Pearson, 1887
T:Public Domain Courtesy of the Cyber Hymnal™
T:Public Domain Courtesy of the Cyber Hymnal™
C:Herbert Howard Booth, 1886
Z:Public Domain
Z:Courtesy of the Cyber Hymnal™
%%score ( 1 2 ) ( 3 4 )
L:1/8
Q:1/4=110
M:4/4
K:F
V:1 treble 
V:2 treble 
V:3 bass 
V:4 bass 
V:1
 C>F | A2 A>^G [FA]2 [FB]2 | [FA]4 [CF]2 C>F | [CA]2 [CA]>[DB] C2 [CE]>[DF] | F6 C>F | %5
w: 1.~God is|keep- ing His sol- diers|fight- ing, Ev- er-|more we shall con- quer- ors|be; All the|
w: 2.~We will|fol- low our con- quering|Sav- ior, From be-|fore Him Hell’s le- gions shall|fly; Our bat-|
w: 3.~With sal-|va- tion for ev- ery|na- tion, To the|ends of the earth we will|go, With a|
 A2 [FA]2 (BB) x2 | [FA]4 [CF]2 A>A | G2 c>c c2 =B2 | c6 (d>d) | [Gc]3 G [Ec]2 [Ed]2 | %10
w: hosts of Hell *|are~u- nit- ing, But|we’re sure to have vic-|to- ry. *|Though~to beat us they’ve|
w: tal- ions nev- *|er~shall wa- ver, They’re|de- ter- mined to conquer|or die. *|From ho- li- ness|
w: free and full *|sal- va- tion, All|the power of the cross|we’ll show. *|We’ll tear Hell’s throne|
 [Fc]4 [FA]2 [Fd]2 | c3 G [Ec]2 [Ed]2 | [Fc]4 [FA]2 C>F | A3 ^G [FA]2 [Fc]2 | e2 d2 F2 [FG]2 | %15
w: been try- ing,|Our col- ors still|are fly- ing, And|our flag shall wave|for- ev- er, For|
w: and Heav- en|We nev- er will|be driv- en; We|will stand our ground|for- ev- er, For|
w: to piec- es,|And win the world|for Je- sus, We’ll|be con- quer- ors|for- ev- er, For|
 [FA]3 [FB] [EG]3 [CF] x | [CF]6 ||"^Refrain" C>F | A>^G A>B [FA]>[CF] C>F | [FA]6 A>B | G6 G>A | %21
w: we nev- er will|give|in. *||||
w: we nev- er will|give|in. No,|we nev- er, nev- er, nev- er will|give in, No|we won’t! No|
w: we nev- er will|give|in. *||||
 F6 C>F | A>^G A>B [FA]>[CF] C>F | [FA]6 c>c | d>d [DB]>[Fd] c>A F>A | G4 F2 |] %26
w: |||||
w: we won’t! No,|we nev- er, nev- er, nev- er will|give in, For|we mean to have the vic- to- ry|for- ev-|
w: |||||
V:2
 C2 | F4 x4 | x6 C2 | x4 C2 x2 | F6 C2 | F4 (A>^G) F2 | x6 F2 | E4 F4 | (E2 F2 G2) G2 | x3 G x4 | %10
 x8 | E4 x4 | x6 C2 | F4 x4 | F4 F2 x2 | x9 | x6 || C2 | F6 C2 | x6 F2 | (G2 F2 E2) E2 | F6 C2 | %22
 F4 x/ C2 x3/2 | x6 F2 | F2 x/ F2 F2 x3/2 | (F2 E2) x2 |] %26
V:3
 [F,A,]2 | C2 C>=B, [F,C]2 [F,D]2 | [F,C]4 [F,A,]2 [F,A,]2 | F,2 F,2 [C,E,]2 [C,B,]2 | %4
 ([F,A,]2 [G,B,]>[G,B,] [A,C]2) [G,B,]2 | C2 [F,C]2 [F,D]2 x2 | [F,C]4 [F,A,]2 [F,C]2 | %7
 [G,C]4 [G,D]4 | C6 [F,=B,]2 | [E,C]4 [C,C]2 [C,B,]2 | [F,A,]4 [F,C]2 [B,,B,]2 | %11
 [C,G,]4 [C,C]2 [C,B,]2 | [F,A,]4 [F,C]2 C2 | C3 =B, [F,C]2 [A,C]2 | B,4 [B,D]2 [B,_D]2 | %15
 C3 D B,3 z A, | [F,A,]6 || [F,A,]2 | C>=B, C>D C>A, [F,A,]2 | C6 [F,C]2 | %20
 ([E,C]2 [D,=B,]2 [C,C]2) [_B,C]2 | ([A,C]2 [G,B,]2 [F,A,]2) z2 | C>=B, C>D C>A, [F,A,]2 | %23
 C6 [A,C]2 | B,2 [B,,B,]2 A,>C A,>C | [C,B,]4 [F,A,]2 |] %26
V:4
 x2 | F,4 x4 | x8 | F,2 F,2 x4 | x8 | F,4 (C>=B,) x2 | x8 | x8 | (C,2 D,2 E,2) x2 | x8 | x8 | x8 | %12
 x6 C>A, | F,4 x4 | B,4 x4 | (C2 C,4) C,2 x | x6 || x2 | F,4 F,2 x2 | (F,2 C,2 F,2) x2 | x8 | x8 | %22
 F,4 F,2 x2 | (F,2 C,2 F,2) x2 | B,2 C,2 C,2 x2 | x6 |] %26

